src/lib/packages/icons/src/assets/line/compass-needle.svg

<svg width="24" height="24" viewBox="0 0 24 24" fill="none" xmlns="http://www.w3.org/2000/svg">
<path d="M21.004 3.01301C20.275 2.27801 19.223 2.053 18.257 2.43L9.522 5.82917C7.872 6.47117 6.55399 7.78398 5.90499 9.43098L2.432 18.2481C2.051 19.2161 2.27299 20.272 3.01199 21.004C3.50599 21.494 4.143 21.751 4.8 21.751C5.125 21.751 5.455 21.6882 5.774 21.5592L14.557 18.004C16.156 17.356 17.44 16.0662 18.081 14.4652L21.561 5.76496C21.947 4.80296 21.733 3.74901 21.004 3.01301ZM20.169 5.20808L16.689 13.909C16.199 15.133 15.217 16.1191 13.995 16.6141L5.212 20.169C4.807 20.332 4.37899 20.247 4.06799 19.94C3.75699 19.632 3.668 19.2061 3.828 18.7991L7.30099 9.982C7.79699 8.723 8.80499 7.7191 10.066 7.2281L18.801 3.82917C18.933 3.77817 19.066 3.753 19.197 3.753C19.47 3.753 19.731 3.86211 19.938 4.07111C20.245 4.37711 20.331 4.80408 20.169 5.20808ZM13.23 11.7601C13.24 11.8401 13.25 11.9201 13.25 12.0001C13.25 12.0801 13.24 12.1601 13.23 12.2401C13.21 12.3201 13.19 12.4 13.15 12.48C13.12 12.55 13.08 12.63 13.04 12.69C12.99 12.76 12.94 12.83 12.88 12.88C12.65 13.12 12.33 13.2501 12 13.2501C11.67 13.2501 11.35 13.12 11.12 12.88C11.06 12.83 11.01 12.76 10.96 12.69C10.92 12.63 10.88 12.55 10.85 12.48C10.81 12.4 10.79 12.3201 10.77 12.2401C10.76 12.1601 10.75 12.0801 10.75 12.0001C10.75 11.9201 10.76 11.8401 10.77 11.7601C10.79 11.6801 10.81 11.6001 10.85 11.5201C10.88 11.4501 10.92 11.3701 10.96 11.3101C11.01 11.2401 11.06 11.1702 11.12 11.1202C11.58 10.6502 12.42 10.6502 12.88 11.1202C12.94 11.1702 12.99 11.2401 13.04 11.3101C13.08 11.3701 13.12 11.4501 13.15 11.5201C13.19 11.6001 13.21 11.6801 13.23 11.7601Z" fill="currentColor"/>
</svg>

<svg xmlns="http://www.w3.org/2000/svg" width="24" height="24" fill="none"><path fill="currentColor" d="M21.004 3.013a2.525 2.525 0 0 0-2.747-.583l-8.735 3.4a6.389 6.389 0 0 0-3.617 3.6l-3.473 8.817a2.524 2.524 0 0 0 .58 2.756 2.527 2.527 0 0 0 2.762.555l8.783-3.555a6.406 6.406 0 0 0 3.524-3.539l3.48-8.7a2.523 2.523 0 0 0-.557-2.752Zm-.835 2.195-3.48 8.701a4.897 4.897 0 0 1-2.694 2.705L5.212 20.17a1.037 1.037 0 0 1-1.144-.229 1.032 1.032 0 0 1-.24-1.14l3.473-8.818a4.886 4.886 0 0 1 2.765-2.754l8.735-3.399a1.034 1.034 0 0 1 1.137.242c.307.306.393.733.231 1.137ZM13.23 11.76c.01.08.02.16.02.24 0 .08-.01.16-.02.24-.02.08-.04.16-.08.24-.03.07-.07.15-.11.21-.05.07-.1.14-.16.19-.23.24-.55.37-.88.37-.33 0-.65-.13-.88-.37-.06-.05-.11-.12-.16-.19a1.39 1.39 0 0 1-.11-.21c-.04-.08-.06-.16-.08-.24-.01-.08-.02-.16-.02-.24 0-.08.01-.16.02-.24.02-.08.04-.16.08-.24.03-.07.07-.15.11-.21.05-.07.1-.14.16-.19.46-.47 1.3-.47 1.76 0 .06.05.11.12.16.19.04.06.08.14.11.21.04.08.06.16.08.24Z"/></svg>
